bl/jinzhoubank-rect.svg

<svg viewBox="0 0 1024 1024" version="1.1" xmlns="http://www.w3.org/2000/svg" height="1em" width="1em">
  <path d="M0 0m224 0l576 0q224 0 224 224l0 576q0 224-224 224l-576 0q-224 0-224-224l0-576q0-224 224-224Z" fill="#FFFFFF"/>
  <path d="M554.76 742.704H321.376S232 655.38 232 430.872C232 223.728 321.38 124 321.38 124h250.808s-161.428 107.268-161.428 304.34c0 199.6 144.044 314.36 144.044 314.36h-0.048zM469.24 281.296h233.38S792 368.62 792 593.128C792 800.224 702.62 900 702.62 900h-250.808s161.428-107.268 161.428-304.34c0-199.6-144-314.36-144-314.36z" fill="#E50113"/>
</svg>

<svg viewBox="0 0 1024 1024" xmlns="http://www.w3.org/2000/svg" height="1em" width="1em">
  <path d="M224 0h576q224 0 224 224v576q0 224-224 224H224Q0 1024 0 800V224Q0 0 224 0Z" fill="#FFF"/>
  <path d="M554.76 742.704H321.376S232 655.38 232 430.872C232 223.728 321.38 124 321.38 124h250.808S410.76 231.268 410.76 428.34c0 199.6 144.044 314.36 144.044 314.36h-.048zm-85.52-461.408h233.38S792 368.62 792 593.128C792 800.224 702.62 900 702.62 900H451.812S613.24 792.732 613.24 595.66c0-199.6-144-314.36-144-314.36z" fill="#E50113"/>
</svg>
